X: 38339
T: Staff In The Baggot, The
R: reel
M: 4/4
K: Dmixolydian
|:A2gf edf2|fedc fdeB|cAAB cedc|BAGE D2DG|
A2gf edf2|fedc gefd|gedB cAAc|BGGA BddB:|
|:A2d2 dcBA|cBce dBBd|edcB cAAc|BGGA BddB|
A2d2 dcBA|edeg fddf|gedB cAAc|BGGA BddB:|
|:eage a2ab|ageg fd(3efg|fdag eagb|agag bagf|
eage a2ab|ageg fd(3efg|fdag eagb|aged gedB:|

